X:1
T: Laird of Dunblair's Reel
C:
R:Reel
Q: 232
K:A
M:4/4
L:1/8
|:E2|A2 cA EA cA|a2 ga fa ec|df eg ae cA|Bd ce dB GE|
A2 cA EA cA|a2 ga fa ec|df eg ae cA|GE dB A2 e2|
a2 ea ca Aa|cA eg ae cA|b2 fb db Bb|dB fB bd eg|
a2 ea ca Aa|cA eg ae cA|df eg ae cA|GE dB A2:|
